!!!COM: Josephine Lang
!!!CNT: Deutsch
!!!TXO: Deutsch
!!!OTL: "Sie liebt mich"
!!!LYR: Goethe
!!!OPS: Op. 33
!!!ONM: No. 4
!!!ENC: Alyona Dzerbina, edited by LVH
!!!YOR: Josephine Lang: Selected Songs
!!!YOR: Da Capo Press, 1982
!!!ODT: 1840/
!!NB: Vocal melody only encoded.
**kern	**text
*staff1	*staff1
*clefG2	*
*k[f#]	*
*met(C)	*
*M4/4	*
*MM[Allegro vivace]	*
8r	.
=1	=1
1r	.
=2	=2
1r	.
=3	=3
1r	.
=4	=4
1r	.
=5	=5
1r	.
=6	=6
1r	.
=7	=7
1r	.
=8	=8
1r	.
=9	=9
1r	.
=10	=10
1r	.
=11!|:	=11!|:
2r	.
4r	.
8.r	.
{16g	{Sie
=12	=12
(4g	liebt
8f#)	mich,
16r	.
16b	sie
(4b	liebt
8a)	mich,
8r	.
=13	=13
4ff#	ja
8r	.
8ee	sie
4ee	liebt
4dd}	mich!}
=14	=14
1r	.
=15	=15
2r	.
4r	.
8r	.
{8g#	{welch
=16	=16
2a	schreck-
4.dd	-li-
8dd	-ches
=17	=17
2ee	Be-
4dd}	-ben}
4r	.
=18	=18
1r	.
=19	=19
{2e	{fu2hl'
4.a	ich
8a	mich
=20	=20
(4.a	sel-
8f#)	|
4a}	-ber?}
4r	.
=21	=21
{2b	{fu2hl
4cc#	ich
4a	mich
=22	=22
(2.ff#	sel-
4dd)}	-ber?}
=23	=23
{2b	{bin
4cc#	ich
4a	am
=24	=24
2.ff#	Le-
8dd	-ben?
16r	.
16dd	Sie
=25	=25
[2ee	lie-
8ee]	|
8dd	|
8cc#	-bet
8b	|
=26	=26
4.a	mich!
8a	sie
[2aa	lie-
=27	=27
2.aa]	|
4cc#	-bet
=28	=28
2dd}	mich!}
2r	.
=29	=29
1r	.
=30	=30
1r	.
=31	=31
1r	.
=32	=32
{4g	{Ach,
8.f#	kann
16f#	die
4g	See-
4g#	-le
=33	=33
4a	dich
8.b	denn
16b	er-
4cc	-fas-
4cc#}	-sen,}
=34	=34
{4dd	{Glu2ck
8.f#	oh-
16f#	-ne
4g	Na-
4g#	-me
=35	=35
4a	kann
8.b	ich
16b	dich
4cc	las-
4dd}	-sen!}
=36	=36
{2gg	{Ein-
4.ff#	-mal
8ee	er-
=37	=37
(2dd	-wacht,
4cc	|
4a)	|
=38	=38
(2g	ein-
4.a	-mal
8a#	er-
=39	=39
2.b)}	-wacht!}
4r	.
=40	=40
{([1ee	{Glu2ck
=41	=41
4ee]	|
4b)	|
4.cc	oh-
8a	-ne
=42	=42
(1dd	Na-
=43	=43
2g)}	-me!}
4r	.
8.r	.
{16g	{Sie
=44	=44
4g	liebt
8.f#	mich,
16b	sie
4b	liebt
4a	mich,
=45	=45
4ff#	ja!
8.r	.
16ee	sie
4ee	liebt
4dd	mich!
=46	=46
([2gg	ja!
8gg]	|
8ee	|
8cc	|
8a)	sie
=47	=47
(2dd	liebt
4g)}	mich!}
4r	.
=48	=48
1r	.
=49	=49
1r	.
=50	=50
1r	.
=51	=51
1r	.
=52	=52
1r	.
=53	=53
1r	.
=54	=54
1r	.
=55	=55
1r	.
=56	=56
1r	.
=57:|!	=57:|!
1r	.
==	==
*-	*-
